icon-themes/elementary_svg/cmd/32/wrapideal.svg

<svg height="32" viewBox="0 0 8.4666665 8.4666669" width="32" xmlns="http://www.w3.org/2000/svg" xmlns:xlink="http://www.w3.org/1999/xlink"><linearGradient id="a" gradientTransform="matrix(.49388712 0 0 .52916666 .148696 2.512748)" gradientUnits="userSpaceOnUse" x1="8.270387" x2="8.270387" y1="-.2485" y2="6.7515"><stop offset="0" stop-color="#cd9ef7"/><stop offset="1" stop-color="#a56de2"/></linearGradient><linearGradient id="b" gradientUnits="userSpaceOnUse" x1="3.96875" x2="7.9375" xlink:href="#e" y1="290.253293" y2="290.253293"/><linearGradient id="c" gradientTransform="matrix(0 -.35277689 -.35277689 0 10.199687 9.744604)" gradientUnits="userSpaceOnUse" x1="23.176001" x2="10.566" y1="11.581" y2="11.979"><stop offset="0" stop-color="#ffa154"/><stop offset="1" stop-color="#f37329"/></linearGradient><linearGradient id="d" gradientTransform="matrix(.71626998 0 0 .76909999 -11.603 -27.831999)" gradientUnits="userSpaceOnUse" x1="32.798229" x2="33.018002" y1="47.928955" y2="64.457008"><stop offset="0" stop-color="#fff"/><stop offset=".04736024" stop-color="#fff" stop-opacity=".235"/><stop offset="1" stop-color="#fff" stop-opacity=".157"/><stop offset="1" stop-color="#fff" stop-opacity=".392"/></linearGradient><linearGradient id="e" gradientUnits="userSpaceOnUse" x1="3.96875" x2="7.9375" y1="290.12082" y2="290.12082"><stop offset="0" stop-color="#737373"/><stop offset=".26238" stop-color="#636363"/><stop offset=".704952" stop-color="#4b4b4b"/><stop offset="1" stop-color="#3f3f3f"/></linearGradient><g transform="translate(-3.439583 .529167)"><path d="m10.188021 5.9536011v-4.4978884l-5.028646-.00103v4.4978884z" display="block" fill="url(#c)" stroke-width=".264583"/><g fill="none" transform="matrix(.26458333 0 0 .26458333 3.439583 -.529167)"><path d="m6.5 7.4980469v16.9998931l19.005859.0039v-16.9998868z" opacity=".5" stroke="#a62100" stroke-linejoin="round"/><path d="m7.909371 8.5024508c-.2291338.0005469-.4149172.1868837-.4160156.4160156v14.1717676c.0011.229132.1868818.413516.4160156.414063l16.185164-.0071c.229523-.00055.415466-.186494.416015-.416016v-14.1698568c-.000549-.229522-.186492-.4154661-.416015-.4160156z" display="block" opacity=".401" stroke="url(#d)" stroke-miterlimit="7"/></g></g><path d="m2.2485195 2.5146529 3.9664588-.00121.00277 3.4403141-3.96646.00121z" style="stroke:#7239b3;stroke-width:.264583;stroke-linecap:round;stroke-linejoin:round;stroke-opacity:.75;fill:url(#a)"/><path d="m2.3808112 2.7813529 3.7018755-.00121" fill="none" opacity=".3" stroke="#fff" stroke-width=".266171"/><g transform="matrix(1.8666667 0 0 1 -6.879167 -285.88748)"><path d="m4.3939733 290.12081h-.4252232l-.0000001.52917h.4252233z" fill="#fff" opacity=".35" stroke-width=".308188"/><path d="m3.96875 289.85623h.4252233v.52917h-.4252233z" fill="url(#e)"/></g><g transform="matrix(1.8666667 0 0 1 -6.879167 -284.564563)"><path d="m4.3939734 290.1213h-.4252233v.52868h.4252233z" fill="#fff" opacity=".35" stroke-width=".308188"/><path d="m3.96875 289.85623h.4252233v.52917h-.4252233z" fill="url(#e)"/></g><g transform="matrix(1.8666667 0 0 1 -6.879167 -288.53332)"><path d="m7.9375 290.25329c0-.0712-.2070112-.13217-.4487234-.13217h-2.9908599c-.2417118 0-.5291667.061-.5291667.13217v.26434c0 .0712.2874549.13217.5291667.13217.00101.001 2.9908599 0 2.9908599 0 .2417122 0 .4487234-.061.4487234-.13217z" fill="#fff" opacity=".35" stroke-width=".308188"/><path d="m3.96875 289.85623h3.96875v.52917h-3.96875z" fill="url(#e)"/></g><g transform="matrix(1.8666667 0 0 1 -6.879167 -287.2104)"><path d="m4.3939733 290.25329h-.4252233v.39669h.4252233z" fill="#fff" opacity=".35" stroke-width=".308188"/><path d="m3.96875 289.85623h.4252233v.52917h-.4252233z" fill="url(#e)"/></g><g transform="matrix(1.8666667 0 0 1 -6.879167 -283.241647)"><path d="m7.9375 290.25329c0-.0712-.2070112-.13217-.4487234-.13217h-2.9908599c-.2417118 0-.5291667.061-.5291667.13217v.26434c0 .0712.2874549.13217.5291667.13217.00101.001 2.9908599 0 2.9908599 0 .2417122 0 .4487234-.061.4487234-.13217z" fill="#fff" opacity=".35" stroke-width=".308188"/><path d="m3.96875 289.85623h3.96875v.52917h-3.96875z" fill="url(#e)"/></g><g transform="matrix(1.8666667 0 0 1 -.264584 -286.01995)"><path d="m4.3939734 290.25328h-.4252232l-.0000001.52917h.4252233z" fill="#fff" opacity=".35" stroke-width=".308188"/><path d="m3.9687501 289.9887h.4252233v.52917h-.4252233z" fill="url(#b)"/></g><g transform="matrix(1.8666667 0 0 1 -.264584 -284.69704)"><path d="m4.3939735 290.25377h-.4252233v.52868h.4252233z" fill="#fff" opacity=".35" stroke-width=".308188"/><path d="m3.9687501 289.9887h.4252233v.52917h-.4252233z" fill="url(#b)"/></g><g transform="matrix(1.8666667 0 0 1 -.264584 -287.34287)"><path d="m4.3939734 290.38576h-.4252233v.39669h.4252233z" fill="#fff" opacity=".35" stroke-width=".308188"/><path d="m3.9687501 289.9887h.4252233v.52917h-.4252233z" fill="url(#b)"/></g></svg>

<?xml version="1.0" encoding="UTF-8" standalone="no"?>
<svg
   xmlns:dc="http://purl.org/dc/elements/1.1/"
   xmlns:cc="http://creativecommons.org/ns#"
   xmlns:rdf="http://www.w3.org/1999/02/22-rdf-syntax-ns#"
   xmlns:svg="http://www.w3.org/2000/svg"
   xmlns="http://www.w3.org/2000/svg"
   xmlns:xlink="http://www.w3.org/1999/xlink"
   xmlns:sodipodi="http://sodipodi.sourceforge.net/DTD/sodipodi-0.dtd"
   xmlns:inkscape="http://www.inkscape.org/namespaces/inkscape"
   height="32"
   viewBox="0 0 8.4666665 8.4666669"
   width="32"
   version="1.1"
   id="svg1191"
   sodipodi:docname="wrapideal.svg"
   inkscape:version="0.92.3 (2405546, 2018-03-11)"
   inkscape:export-filename="/home/rizmut/Documents/Rizmut/Github/libreoffice-style-elementary/images_elementary/cmd/32/wrapideal.png"
   inkscape:export-xdpi="96"
   inkscape:export-ydpi="96">
  <metadata
     id="metadata1197">
    <rdf:RDF>
      <cc:Work
         rdf:about="">
        <dc:format>image/svg+xml</dc:format>
        <dc:type
           rdf:resource="http://purl.org/dc/dcmitype/StillImage" />
        <dc:title></dc:title>
      </cc:Work>
    </rdf:RDF>
  </metadata>
  <defs
     id="defs1195">
    <linearGradient
       id="d"
       gradientTransform="matrix(0.49388712,0,0,0.52916666,0.14869584,2.512748)"
       gradientUnits="userSpaceOnUse"
       x1="8.2703867"
       x2="8.2703867"
       y1="-0.24850014"
       y2="6.7515001">
      <stop
         offset="0"
         stop-color="#cd9ef7"
         id="stop2066" />
      <stop
         offset="1"
         stop-color="#a56de2"
         id="stop2068" />
    </linearGradient>
    <linearGradient
       inkscape:collect="always"
       xlink:href="#a"
       id="linearGradient903"
       gradientUnits="userSpaceOnUse"
       x1="3.96875"
       y1="290.12082"
       x2="7.9375"
       y2="290.12082"
       gradientTransform="translate(9.2410711e-8,0.13247334)" />
    <linearGradient
       inkscape:collect="always"
       xlink:href="#a"
       id="linearGradient905"
       gradientUnits="userSpaceOnUse"
       x1="3.96875"
       y1="290.12082"
       x2="7.9375"
       y2="290.12082"
       gradientTransform="translate(9.2410711e-8,0.13247334)" />
    <linearGradient
       inkscape:collect="always"
       xlink:href="#a"
       id="linearGradient907"
       gradientUnits="userSpaceOnUse"
       x1="3.96875"
       y1="290.12082"
       x2="7.9375"
       y2="290.12082"
       gradientTransform="translate(9.2410711e-8,0.13247334)" />
    <linearGradient
       id="a-6"
       gradientTransform="matrix(0.1895131,0,0,0.20349104,0.36962295,-7.8930499)"
       gradientUnits="userSpaceOnUse"
       x1="33.060001"
       x2="33.018002"
       y1="46.709999"
       y2="62.912998">
      <stop
         offset="0"
         stop-color="#fff"
         id="stop1566" />
      <stop
         offset="0.04736024"
         stop-color="#fff"
         stop-opacity=".235"
         id="stop1568" />
      <stop
         offset="1"
         stop-color="#fff"
         stop-opacity=".157"
         id="stop1570" />
      <stop
         offset="1"
         stop-color="#fff"
         stop-opacity=".392"
         id="stop1572" />
    </linearGradient>
    <linearGradient
       id="b"
       gradientTransform="matrix(0,-0.35277689,-0.35277689,0,10.199687,9.7446041)"
       gradientUnits="userSpaceOnUse"
       x1="23.176001"
       x2="10.566"
       y1="11.581"
       y2="11.979">
      <stop
         offset="0"
         stop-color="#ffa154"
         id="stop1575" />
      <stop
         offset="1"
         stop-color="#f37329"
         id="stop1577" />
    </linearGradient>
    <radialGradient
       id="c"
       cx="24.837"
       cy="36.421001"
       gradientTransform="matrix(-0.09735873,0,0,0.10436225,8.5481583,-0.71358119)"
       gradientUnits="userSpaceOnUse"
       r="15.645">
      <stop
         offset="0"
         id="stop1580" />
      <stop
         offset="1"
         stop-opacity="0"
         id="stop1582" />
    </radialGradient>
    <linearGradient
       inkscape:collect="always"
       xlink:href="#a-6"
       id="linearGradient2280"
       gradientUnits="userSpaceOnUse"
       gradientTransform="matrix(0.71626998,0,0,0.76909999,-11.603,-27.831999)"
       x1="32.798229"
       y1="47.928955"
       x2="33.018002"
       y2="64.457008" />
  </defs>
  <sodipodi:namedview
     pagecolor="#ffffff"
     bordercolor="#666666"
     borderopacity="1"
     objecttolerance="10"
     gridtolerance="10"
     guidetolerance="10"
     inkscape:pageopacity="0"
     inkscape:pageshadow="2"
     inkscape:window-width="1366"
     inkscape:window-height="696"
     id="namedview1193"
     showgrid="true"
     inkscape:zoom="5.6568543"
     inkscape:cx="20.968822"
     inkscape:cy="18.576556"
     inkscape:window-x="0"
     inkscape:window-y="0"
     inkscape:window-maximized="1"
     inkscape:current-layer="g2274"
     inkscape:snap-global="false">
    <inkscape:grid
       type="xygrid"
       id="grid1742" />
  </sodipodi:namedview>
  <linearGradient
     id="a"
     gradientUnits="userSpaceOnUse"
     x1="3.96875"
     x2="7.9375"
     y1="290.12082"
     y2="290.12082">
    <stop
       offset="0"
       stop-color="#737373"
       id="stop1152" />
    <stop
       offset=".26238"
       stop-color="#636363"
       id="stop1154" />
    <stop
       offset=".704952"
       stop-color="#4b4b4b"
       id="stop1156" />
    <stop
       offset="1"
       stop-color="#3f3f3f"
       id="stop1158" />
  </linearGradient>
  <g
     id="g2274"
     transform="translate(-3.4395833,0.52916673)">
    <path
       sodipodi:nodetypes="ccccc"
       inkscape:connector-curvature="0"
       style="display:block;fill:url(#b);stroke-width:0.26458335"
       d="M 10.188021,5.9536011 V 1.4557127 l -5.028646,-0.00103 v 4.4978884 z"
       display="block"
       id="path1596" />
    <path
       style="opacity:0.5;fill:none;stroke:#a62100;stroke-width:1;stroke-linejoin:round"
       d="M 6.5,7.4980469 V 24.49794 l 19.005859,0.0039 V 7.5019532 Z"
       transform="matrix(0.26458333,0,0,0.26458333,3.4395833,-0.52916667)"
       id="path2297"
       inkscape:connector-curvature="0"
       sodipodi:nodetypes="ccccc" />
    <path
       style="display:block;opacity:0.40100002;fill:none;stroke:url(#linearGradient2280);stroke-width:1;stroke-miterlimit:7"
       d="M 7.909371,8.5024508 C 7.6802372,8.5029977 7.4944538,8.6893345 7.4933554,8.9184664 V 23.090234 c 0.0011,0.229132 0.1868818,0.413516 0.4160156,0.414063 l 16.185164,-0.0071 c 0.229523,-5.5e-4 0.415466,-0.186494 0.416015,-0.416016 V 8.9113242 C 24.510001,8.6818022 24.324058,8.4958581 24.094535,8.4953086 Z"
       transform="matrix(0.26458333,0,0,0.26458333,3.4395833,-0.52916667)"
       id="path1598"
       inkscape:connector-curvature="0"
       sodipodi:nodetypes="ccccccccc" />
  </g>
  <g
     id="g3308">
    <path
       sodipodi:nodetypes="ccccc"
       id="path2071"
       d="m 2.2485195,2.5146529 3.9664588,-0.00121 0.00277,3.4403141 -3.96646,0.00121 z"
       style="fill:url(#d);stroke:#7239b3;stroke-width:0.26458335;stroke-linecap:round;stroke-linejoin:round;stroke-opacity:0.75"
       inkscape:connector-curvature="0" />
    <path
       sodipodi:nodetypes="cc"
       id="path2073"
       d="m 2.3808112,2.7813529 3.7018755,-0.00121"
       style="opacity:0.3;fill:none;stroke:#ffffff;stroke-width:0.26617086"
       inkscape:connector-curvature="0" />
  </g>
  <g
     id="g2268"
     transform="translate(-0.26458333,-0.26458333)" />
  <g
     transform="matrix(1.8666667 0 0 1 -6.879167 -285.88748)"
     id="g1165">
    <path
       d="M 4.3939733,290.12081 H 3.9687501 l -10e-8,0.52917 h 0.4252233 z"
       id="path1161"
       inkscape:connector-curvature="0"
       style="opacity:0.35;fill:#ffffff;stroke-width:0.30818799"
       sodipodi:nodetypes="ccccc" />
    <path
       d="m 3.96875,289.85623 0.4252233,0 v 0.52917 l -0.4252233,0 z"
       id="path1163"
       inkscape:connector-curvature="0"
       style="fill:url(#a)"
       sodipodi:nodetypes="ccccc" />
  </g>
  <g
     transform="matrix(1.8666667 0 0 1 -6.879167 -284.564563)"
     id="g1171">
    <path
       d="m 4.3939734,290.1213 -0.4252233,0 v 0.52868 l 0.4252233,0 z"
       id="path1167"
       inkscape:connector-curvature="0"
       style="opacity:0.35;fill:#ffffff;stroke-width:0.30818799"
       sodipodi:nodetypes="ccccc" />
    <path
       d="m 3.96875,289.85623 0.4252233,0 v 0.52917 l -0.4252233,0 z"
       id="path1169"
       inkscape:connector-curvature="0"
       style="fill:url(#a)"
       sodipodi:nodetypes="ccccc" />
  </g>
  <g
     transform="matrix(1.8666667 0 0 1 -6.879167 -288.53332)"
     id="g1177">
    <path
       d="m7.9375 290.25329c0-.0712-.2070112-.13217-.4487234-.13217h-2.9908599c-.2417118 0-.5291667.061-.5291667.13217v.26434c0 .0712.2874549.13217.5291667.13217.00101.001 2.9908599 0 2.9908599 0 .2417122 0 .4487234-.061.4487234-.13217z"
       id="path1173"
       stroke-width=".308188"
       fill="#fff"
       opacity=".35" />
    <path
       d="m3.96875 289.85623h3.96875v.52917h-3.96875z"
       id="path1175"
       fill="url(#a)" />
  </g>
  <g
     transform="matrix(1.8666667 0 0 1 -6.879167 -287.2104)"
     id="g1183">
    <path
       d="M 4.3939733,290.25329 H 3.96875 l 0,0.39669 h 0.4252233 z"
       id="path1179"
       inkscape:connector-curvature="0"
       style="opacity:0.35;fill:#ffffff;stroke-width:0.30818799"
       sodipodi:nodetypes="ccccc" />
    <path
       d="m 3.96875,289.85623 0.4252233,0 v 0.52917 l -0.4252233,0 z"
       id="path1181"
       inkscape:connector-curvature="0"
       style="fill:url(#a)"
       sodipodi:nodetypes="ccccc" />
  </g>
  <g
     transform="matrix(1.8666667 0 0 1 -6.879167 -283.241647)"
     id="g1189">
    <path
       d="m7.9375 290.25329c0-.0712-.2070112-.13217-.4487234-.13217h-2.9908599c-.2417118 0-.5291667.061-.5291667.13217v.26434c0 .0712.2874549.13217.5291667.13217.00101.001 2.9908599 0 2.9908599 0 .2417122 0 .4487234-.061.4487234-.13217z"
       id="path1185"
       stroke-width=".308188"
       fill="#fff"
       opacity=".35" />
    <path
       d="m3.96875 289.85623h3.96875v.52917h-3.96875z"
       id="path1187"
       fill="url(#a)" />
  </g>
  <g
     id="g889"
     transform="matrix(1.8666667,0,0,1,-0.26458361,-286.01995)">
    <path
       sodipodi:nodetypes="ccccc"
       style="opacity:0.35;fill:#ffffff;stroke-width:0.30818799"
       inkscape:connector-curvature="0"
       id="path885"
       d="M 4.3939734,290.25328 H 3.9687502 l -1e-7,0.52917 h 0.4252233 z" />
    <path
       sodipodi:nodetypes="ccccc"
       style="fill:url(#linearGradient903)"
       inkscape:connector-curvature="0"
       id="path887"
       d="m 3.9687501,289.9887 h 0.4252233 v 0.52917 H 3.9687501 Z" />
  </g>
  <g
     id="g895"
     transform="matrix(1.8666667,0,0,1,-0.26458361,-284.69704)">
    <path
       sodipodi:nodetypes="ccccc"
       style="opacity:0.35;fill:#ffffff;stroke-width:0.30818799"
       inkscape:connector-curvature="0"
       id="path891"
       d="M 4.3939735,290.25377 H 3.9687502 v 0.52868 h 0.4252233 z" />
    <path
       sodipodi:nodetypes="ccccc"
       style="fill:url(#linearGradient905)"
       inkscape:connector-curvature="0"
       id="path893"
       d="m 3.9687501,289.9887 h 0.4252233 v 0.52917 H 3.9687501 Z" />
  </g>
  <g
     id="g901"
     transform="matrix(1.8666667,0,0,1,-0.26458361,-287.34287)">
    <path
       sodipodi:nodetypes="ccccc"
       style="opacity:0.35;fill:#ffffff;stroke-width:0.30818799"
       inkscape:connector-curvature="0"
       id="path897"
       d="M 4.3939734,290.38576 H 3.9687501 v 0.39669 h 0.4252233 z" />
    <path
       sodipodi:nodetypes="ccccc"
       style="fill:url(#linearGradient907)"
       inkscape:connector-curvature="0"
       id="path899"
       d="m 3.9687501,289.9887 h 0.4252233 v 0.52917 H 3.9687501 Z" />
  </g>
</svg>
